Papirus/64x64/apps/tuxmath.svg

<?xml version="1.0" encoding="UTF-8" standalone="no"?>
<svg
   id="_图层_1"
   version="1.1"
   viewBox="0 0 64 64" width="64" height="64"
   sodipodi:docname="tuxmath.svg"
   xml:space="preserve"
   inkscape:version="1.4 (e7c3feb100, 2024-10-09)"
   xmlns:inkscape="http://www.inkscape.org/namespaces/inkscape"
   xmlns:sodipodi="http://sodipodi.sourceforge.net/DTD/sodipodi-0.dtd"
   xmlns:xlink="http://www.w3.org/1999/xlink"
   xmlns="http://www.w3.org/2000/svg"
   xmlns:svg="http://www.w3.org/2000/svg"><sodipodi:namedview
     id="namedview26"
     pagecolor="#505050"
     bordercolor="#eeeeee"
     borderopacity="1"
     inkscape:showpageshadow="0"
     inkscape:pageopacity="0"
     inkscape:pagecheckerboard="0"
     inkscape:deskcolor="#505050"
     inkscape:zoom="10.6875"
     inkscape:cx="32"
     inkscape:cy="32"
     inkscape:window-width="1920"
     inkscape:window-height="939"
     inkscape:window-x="0"
     inkscape:window-y="34"
     inkscape:window-maximized="1"
     inkscape:current-layer="_图层_1" /><!-- Generator: Adobe Illustrator 29.0.1, SVG Export Plug-In . SVG Version: 2.1.0 Build 192)  --><defs
     id="defs6"><style
       id="style1">
      .st0 {
        fill-opacity: .5;
      }

      .st0, .st1, .st2, .st3, .st4, .st5, .st6, .st7 {
        fill: #fff;
      }

      .st8 {
        fill: #133c9a;
      }

      .st2, .st9 {
        display: none;
      }

      .st3 {
        fill-opacity: .2;
      }

      .st4 {
        fill-opacity: .9;
      }

      .st10 {
        fill: #3370ff;
      }

      .st11 {
        fill: url(#_未命名的渐变_3);
      }

      .st12 {
        fill: url(#_未命名的渐变);
      }

      .st5 {
        fill-opacity: .3;
      }

      .st6 {
        fill-opacity: 0;
      }

      .st7 {
        fill-opacity: .7;
      }

      .st13 {
        fill: #00d6b9;
      }

      .st14 {
        fill: url(#_未命名的渐变_2);
      }
    </style><radialGradient
       id="_未命名的渐变"
       data-name="未命名的渐变"
       cx="123.9"
       cy="-40.2"
       fx="123.9"
       fy="-40.2"
       r="59.4"
       gradientTransform="translate(-26.8 25.5) scale(.6 -.7)"
       gradientUnits="userSpaceOnUse"><stop
         offset="0"
         stop-color="#db202e"
         id="stop1" /><stop
         offset="1"
         stop-color="#e01b24"
         id="stop2" /></radialGradient><radialGradient
       id="_未命名的渐变_2"
       data-name="未命名的渐变 2"
       cx="67.6"
       cy="26.8"
       fx="67.6"
       fy="26.8"
       r="105.2"
       gradientTransform="translate(-26.6 25.3) scale(.6 -.7)"
       gradientUnits="userSpaceOnUse"><stop
         offset="0"
         stop-color="#ffb648"
         id="stop3" /><stop
         offset="1"
         stop-color="#ff7800"
         stop-opacity="0"
         id="stop4" /></radialGradient><radialGradient
       id="_未命名的渐变_3"
       data-name="未命名的渐变 3"
       cx="61.7"
       cy="18.6"
       fx="61.7"
       fy="18.6"
       r="68"
       gradientTransform="translate(-26.8 25.8) scale(.6 -.7)"
       gradientUnits="userSpaceOnUse"><stop
         offset="0"
         stop-color="#c64600"
         id="stop5" /><stop
         offset="1"
         stop-color="#a51d2d"
         id="stop6" /></radialGradient><linearGradient
       id="linearGradient1261"><stop
         style="stop-color:#4f4f4f"
         offset="0"
         id="stop1-7" /><stop
         style="stop-color:#3f3f3f"
         offset="1"
         id="stop2-0" /></linearGradient><linearGradient
       id="linearGradient1263"
       x1="34.241"
       x2="37.169"
       y1="38.945"
       y2="30.342"
       gradientTransform="matrix(1.3919157,0,0,1.3888889,-1.321022,-0.4865665)"
       gradientUnits="userSpaceOnUse"
       xlink:href="#linearGradient1261" /></defs><path
     class="st1"
     d="M47.5,64.1H13.8c-7.6,0-13.8-6.3-13.8-13.8V13.7C0,6.2,6.2,0,13.7,0h36.6c7.5,0,13.7,6.2,13.7,13.7v36.6c0,7.5-6.2,13.7-13.7,13.7h-2.9.1Z"
     id="path6"
     style="fill:#4cb6ff;fill-opacity:1" /><g
     id="g26"
     transform="matrix(0.89807853,0,0,0.86194996,3.8696741,3.4252229)"><path
       style="opacity:0.2"
       d="m 50.912,28.016 c 0.513,-1.736 0.796,-3.567 0.796,-5.467 0,-10.796 -8.82,-19.5479 -19.706,-19.5479 -10.88,0 -19.704,8.7499 -19.704,19.5479 0,1.9 0.285,3.731 0.796,5.467 -2.481,1.978 -12.11166,10.546 -8.1497,21.656 0,0 3.3516,-0.284 6.1047,-5.334 0.836,3.232 2.393,6.167 4.517,8.621 -3.111,0.909 -5.221,2.672 -5.221,4.695 0,2.953 4.492,5.346 10.03,5.346 3.759,0 7.032,-1.104 8.748,-2.733 0.945,0.124 1.898,0.209 2.876,0.209 0.979,0 1.934,-0.085 2.875,-0.209 1.72,1.628 4.991,2.733 8.751,2.733 5.54,0 10.034,-2.395 10.034,-5.346 0,-2.021 -2.112,-3.786 -5.223,-4.695 2.122,-2.454 3.683,-5.389 4.519,-8.621 2.751,5.048 6.098,5.334 6.098,5.334 3.968,-11.113 -5.662,-19.681 -8.142,-21.656 z"
       id="path1" /><path
       style="fill:#4f4f4f"
       d="m 50.911843,27.016163 c 0.512698,-1.736413 0.795836,-3.567785 0.795836,-5.467376 0,-10.795753 -8.819961,-19.5479142 -19.705913,-19.5479142 -10.879952,0 -19.703713,8.7503612 -19.703713,19.5479142 0,1.899611 0.285038,3.730983 0.795836,5.467376 -2.481189,1.977411 -12.11154649,10.545553 -8.1495639,21.655904 0,0 3.3515852,-0.284658 6.1045729,-5.334376 0.835997,3.231786 2.39319,6.167573 4.51678,8.621362 -3.110586,0.908996 -5.220777,2.671988 -5.220777,4.694979 0,2.952787 4.491781,5.345777 10.030156,5.345777 3.759184,0 7.032369,-1.104475 8.748362,-2.732788 0.945036,0.123359 1.897751,0.208759 2.875387,0.208759 0.979476,0 1.934092,-0.0854 2.875387,-0.208759 1.719833,1.628233 4.991178,2.732788 8.750362,2.732788 5.540176,0 10.033956,-2.39499 10.033956,-5.345777 0,-2.020991 -2.111991,-3.785983 -5.222577,-4.694979 2.12159,-2.453789 3.682584,-5.389576 4.51858,-8.621362 2.750988,5.047978 6.098773,5.334376 6.098773,5.334376 C 63.02087,37.559116 53.390712,28.990954 50.911323,27.016163 Z"
       id="path2" /><circle
       style="fill:#ffffff"
       cx="22"
       cy="16"
       r="4"
       id="circle2" /><circle
       style="fill:#ffffff"
       cx="42"
       cy="16"
       r="4"
       id="circle3" /><ellipse
       style="fill:#ffffff"
       cx="32"
       cy="38"
       rx="14"
       ry="16"
       id="ellipse3" /><circle
       style="fill:#303030"
       cx="24"
       cy="17"
       r="2"
       id="circle4" /><circle
       style="fill:#303030"
       cx="44"
       cy="17"
       r="2"
       id="circle5" /><path
       style="opacity:0.2;fill:none;stroke:#000000;stroke-width:3;stroke-linecap:round;stroke-linejoin:round"
       d="M 37.5,46.5 V 33 l -3,3.5"
       id="path5" /><path
       style="fill:none;stroke:#f34235;stroke-width:3;stroke-linecap:round;stroke-linejoin:round"
       d="m 37.5,45.5 v -13 l -3,3"
       id="path6-3" /><rect
       style="opacity:0.2"
       width="8"
       height="3"
       x="24"
       y="39"
       rx="1.5"
       ry="1.5"
       id="rect6" /><rect
       style="fill:#f34235"
       width="8"
       height="3"
       x="24"
       y="38"
       rx="1.5"
       ry="1.5"
       id="rect7" /><path
       style="opacity:0.2"
       d="m 28,19 h 8 c -0.641,6.163 -4,12 -4,12 0,0 -4,-6.927 -4,-12 z"
       id="path7" /><path
       style="fill:#cd5252"
       d="m 28,18 h 8 c -0.641,6.163 -4,12 -4,12 0,0 -4,-6.927 -4,-12 z"
       id="path8" /><path
       style="opacity:0.1;fill:#ffffff"
       d="m 32.002,2 c -10.88,0 -19.703,8.751 -19.703,19.549 0,0.138 0.012,0.274 0.015,0.412 0.315,-10.525 9.007,-18.959 19.688,-18.959 10.687,0 19.375,8.436 19.689,18.959 0.003,-0.138 0.016,-0.274 0.016,-0.412 C 51.707,10.753 42.888,2 32.002,2 Z M 12.883,27.195 C 10.585,29.063 3.7544,35.333 4.0117,43.801 4.2989,35.622 11.071,29.628 13.094,28.016 13.014,27.746 12.951,27.47 12.883,27.195 Z m 38.24,0 c -0.068,0.275 -0.131,0.551 -0.211,0.821 2.023,1.61 8.79,7.602 9.076,15.779 0.259,-8.467 -6.569,-14.735 -8.865,-16.6 z M 14.928,52.176 c -2.751,0.954 -4.582,2.6 -4.582,4.478 0,0.191 0.02,0.379 0.056,0.565 0.28,-1.837 2.28,-3.417 5.164,-4.26 -0.22,-0.255 -0.43,-0.518 -0.638,-0.783 z m 34.146,0 c -0.208,0.265 -0.418,0.528 -0.638,0.783 2.883,0.842 4.885,2.424 5.166,4.26 0.036,-0.186 0.056,-0.374 0.056,-0.565 0,-1.876 -1.833,-3.523 -4.584,-4.478 z"
       id="path9" /></g></svg>

<svg xmlns="http://www.w3.org/2000/svg" width="64" height="64" version="1">
 <path style="opacity:0.2" d="M 50.912,28.016 C 51.425,26.28 51.708,24.449 51.708,22.549 51.708,11.753 42.888,3.0011 32.002,3.0011 21.122,3.0011 12.298,11.751 12.298,22.549 12.298,24.449 12.583,26.28 13.094,28.016 10.613,29.994 0.98234,38.562 4.9443,49.672 4.9443,49.672 8.2959,49.388 11.049,44.338 11.885,47.57 13.442,50.505 15.566,52.959 12.455,53.868 10.345,55.631 10.345,57.654 10.345,60.607 14.837,63 20.375,63 24.134,63 27.407,61.896 29.123,60.267 30.068,60.391 31.021,60.476 31.999,60.476 32.978,60.476 33.933,60.391 34.874,60.267 36.594,61.895 39.865,63 43.625,63 49.165,63 53.659,60.605 53.659,57.654 53.659,55.633 51.547,53.868 48.436,52.959 50.558,50.505 52.119,47.57 52.955,44.338 55.706,49.386 59.053,49.672 59.053,49.672 63.021,38.559 53.391,29.991 50.911,28.016 Z"/>
 <path style="fill:#4f4f4f" d="m 50.911843,27.016163 c 0.512698,-1.736413 0.795836,-3.567785 0.795836,-5.467376 0,-10.795753 -8.819961,-19.5479142 -19.705913,-19.5479142 -10.879952,0 -19.703713,8.7503612 -19.703713,19.5479142 0,1.899611 0.285038,3.730983 0.795836,5.467376 -2.481189,1.977411 -12.11154649,10.545553 -8.1495639,21.655904 0,0 3.3515852,-0.284658 6.1045729,-5.334376 0.835997,3.231786 2.39319,6.167573 4.51678,8.621362 -3.110586,0.908996 -5.220777,2.671988 -5.220777,4.694979 0,2.952787 4.491781,5.345777 10.030156,5.345777 3.759184,0 7.032369,-1.104475 8.748362,-2.732788 0.945036,0.123359 1.897751,0.208759 2.875387,0.208759 0.979476,0 1.934092,-0.0854 2.875387,-0.208759 1.719833,1.628233 4.991178,2.732788 8.750362,2.732788 5.540176,0 10.033956,-2.39499 10.033956,-5.345777 0,-2.020991 -2.111991,-3.785983 -5.222577,-4.694979 2.12159,-2.453789 3.682584,-5.389576 4.51858,-8.621362 2.750988,5.047978 6.098773,5.334376 6.098773,5.334376 C 63.02087,37.559116 53.390712,28.990954 50.911323,27.016163 Z"/>
 <circle style="fill:#ffffff" cx="22" cy="16" r="4"/>
 <circle style="fill:#ffffff" cx="42" cy="16" r="4"/>
 <ellipse style="fill:#ffffff" cx="32" cy="38" rx="14" ry="16"/>
 <circle style="fill:#303030" cx="24" cy="17" r="2"/>
 <circle style="fill:#303030" cx="44" cy="17" r="2"/>
 <path style="opacity:0.2;fill:none;stroke:#000000;stroke-width:3;stroke-linecap:round;stroke-linejoin:round" d="M 37.5,46.5 V 33 L 34.5,36.5"/>
 <path style="fill:none;stroke:#f34235;stroke-width:3;stroke-linecap:round;stroke-linejoin:round" d="M 37.5,45.5 V 32.5 L 34.5,35.5"/>
 <rect style="opacity:0.2" width="8" height="3" x="24" y="39" rx="1.5" ry="1.5"/>
 <rect style="fill:#f34235" width="8" height="3" x="24" y="38" rx="1.5" ry="1.5"/>
 <path style="opacity:0.2" d="M 28,19 H 36 C 35.359,25.163 32,31 32,31 32,31 28,24.073 28,19 Z"/>
 <path style="fill:#cd5252" d="M 28,18 H 36 C 35.359,24.163 32,30 32,30 32,30 28,23.073 28,18 Z"/>
 <path style="fill:#ffffff;opacity:0.1" d="M 32.002 2 C 21.122 2 12.299 10.751 12.299 21.549 C 12.299 21.687 12.311 21.823 12.314 21.961 C 12.629 11.436 21.321 3.002 32.002 3.002 C 42.689 3.002 51.377 11.438 51.691 21.961 C 51.694 21.823 51.707 21.687 51.707 21.549 C 51.707 10.753 42.888 2 32.002 2 z M 12.883 27.195 C 10.585 29.063 3.7544 35.333 4.0117 43.801 C 4.2989 35.622 11.071 29.628 13.094 28.016 C 13.014 27.746 12.951 27.47 12.883 27.195 z M 51.123 27.195 C 51.055 27.47 50.992 27.746 50.912 28.016 C 52.935 29.626 59.702 35.618 59.988 43.795 C 60.247 35.328 53.419 29.06 51.123 27.195 z M 14.928 52.176 C 12.177 53.13 10.346 54.776 10.346 56.654 C 10.346 56.845 10.366 57.033 10.402 57.219 C 10.682 55.382 12.682 53.802 15.566 52.959 C 15.346 52.704 15.136 52.441 14.928 52.176 z M 49.074 52.176 C 48.866 52.441 48.656 52.704 48.436 52.959 C 51.319 53.801 53.321 55.383 53.602 57.219 C 53.638 57.033 53.658 56.845 53.658 56.654 C 53.658 54.778 51.825 53.131 49.074 52.176 z"/>
</svg>
